DVA
CUT[Mach auf mein Schatz, mein goldne Pfort,
    hoer an mein Stimm, hoer an mein Wort!]
REG[Europa, Mitteleuropa, Lothringen, Altripp]
KEY[D0002  16  G 4/4]
MEL[-5_  -5_1_1_-7_1__.2_  3b_2_1__2__.
    1_  -7b__2_2_1__-5_-6_  -7b__-6__-5__0_
    5_  5_4_5_543b__.4_  5_6b_5_43b2__.
    1_  1_-7b_1_2_3b_4_5_4_  3b__2__1__0_ //] >>
FCT[Tage - Lied, Kiltlied]
CMT[Inzipit = Variante zum Lied]
